assets/img/icons/shopping-cart.svg

<svg width="16" height="16" viewBox="0 0 16 16" fill="none" xmlns="http://www.w3.org/2000/svg">
<path d="M14.4201 10.9672H5.11537L5.58256 10.0156L13.3451 10.0016C13.6076 10.0016 13.8326 9.81406 13.8794 9.55469L14.9544 3.5375C14.9826 3.37969 14.9404 3.21719 14.8372 3.09375C14.7863 3.033 14.7227 2.98407 14.6509 2.95034C14.5792 2.91661 14.5009 2.8989 14.4216 2.89844L4.54662 2.86562L4.46224 2.46875C4.40912 2.21562 4.18099 2.03125 3.92162 2.03125H1.50756C1.36127 2.03125 1.22098 2.08936 1.11754 2.1928C1.0141 2.29624 0.955994 2.43653 0.955994 2.58281C0.955994 2.7291 1.0141 2.86939 1.11754 2.97283C1.22098 3.07626 1.36127 3.13438 1.50756 3.13438H3.47474L3.84349 4.8875L4.75131 9.28281L3.58256 11.1906C3.52186 11.2725 3.4853 11.3698 3.47702 11.4714C3.46874 11.573 3.48906 11.675 3.53568 11.7656C3.62943 11.9516 3.81849 12.0688 4.02787 12.0688H5.00912C4.79993 12.3466 4.68694 12.685 4.68724 13.0328C4.68724 13.9172 5.40599 14.6359 6.29037 14.6359C7.17474 14.6359 7.89349 13.9172 7.89349 13.0328C7.89349 12.6844 7.77787 12.3453 7.57162 12.0688H10.0888C9.87962 12.3466 9.76662 12.685 9.76693 13.0328C9.76693 13.9172 10.4857 14.6359 11.3701 14.6359C12.2544 14.6359 12.9732 13.9172 12.9732 13.0328C12.9732 12.6844 12.8576 12.3453 12.6513 12.0688H14.4216C14.7247 12.0688 14.9732 11.8219 14.9732 11.5172C14.9723 11.3711 14.9136 11.2312 14.81 11.1282C14.7064 11.0251 14.5662 10.9673 14.4201 10.9672V10.9672ZM4.77631 3.95312L13.7732 3.98281L12.8919 8.91719L5.82474 8.92969L4.77631 3.95312ZM6.29037 13.5266C6.01849 13.5266 5.79662 13.3047 5.79662 13.0328C5.79662 12.7609 6.01849 12.5391 6.29037 12.5391C6.56224 12.5391 6.78412 12.7609 6.78412 13.0328C6.78412 13.1638 6.7321 13.2894 6.6395 13.3819C6.54691 13.4745 6.42132 13.5266 6.29037 13.5266V13.5266ZM11.3701 13.5266C11.0982 13.5266 10.8763 13.3047 10.8763 13.0328C10.8763 12.7609 11.0982 12.5391 11.3701 12.5391C11.6419 12.5391 11.8638 12.7609 11.8638 13.0328C11.8638 13.1638 11.8118 13.2894 11.7192 13.3819C11.6266 13.4745 11.501 13.5266 11.3701 13.5266V13.5266Z" fill="#8C8C8C"/>
</svg>

<svg width="16" height="16" fill="none" xmlns="http://www.w3.org/2000/svg"><path d="M14.42 10.967H5.115l.468-.951 7.762-.014a.543.543 0 00.534-.447l1.075-6.018a.542.542 0 00-.532-.639l-9.875-.032-.085-.397a.555.555 0 00-.54-.438H1.508a.552.552 0 100 1.103h1.967l.368 1.754.908 4.395-1.168 1.908a.546.546 0 00-.047.575.55.55 0 00.492.303h.981a1.604 1.604 0 001.281 2.567 1.604 1.604 0 001.282-2.567h2.517a1.604 1.604 0 001.281 2.567 1.604 1.604 0 001.281-2.567h1.77a.553.553 0 00.552-.552.553.553 0 00-.553-.55zM4.776 3.953l8.997.03-.881 4.934-7.067.013-1.049-4.977zm1.514 9.574a.495.495 0 010-.988.495.495 0 010 .988zm5.08 0a.495.495 0 010-.988.495.495 0 010 .988z" fill="#8C8C8C"/></svg>
